X:1
T:Title
%%score { ( 1 3 4 ) | ( 2 5 ) }
L:1/8
M:3/4
K:Bb
V:1 treble nm="Grand Piano"
V:3 treble 
V:4 treble 
V:2 bass 
V:5 bass 
V:1
 z2 z2[Q:1/4=96] [B,D][CE] | [DF]2 [DB]2 D[_DG] | [DF]4 [DF][DB] | A3 G [DF][CE] | %4
 [B,D]4 [B,D][CE] | [DF]2 [DB]2 D[_DG] | [F,DF]4 [B,F][=B,FG] | [CFA]3 [Fc] [=Ed][Ec] | F4 ed | %9
 c4 z2 |[M:2/4] B4[K:bass] |[M:1/4][K:treble] cB |[M:3/4] [CA]4[K:bass][K:treble] z2 | %13
[M:7/8] D[_DG] [F,=DF]3 ed |[M:3/4] z2 z c dc | B4[K:bass][K:treble] z2 | c4 z2 |[M:2/4] [DB]4 |] %18
V:2
 z2 z2 [B,,F,][B,,F,] | [B,,B,]2 [B,,F,]2 [B,,F,][B,,=E,] | [B,,F,]4 [B,,B,][B,,F,] | %3
 [F,C]3 [F,E] [F,,F,][F,,F,] | [B,,F,]4 [B,,F,][B,,F,] | [B,,B,]2 [B,,F,]2 [B,,F,][B,,=E,] | %6
 B,,4 D,_D, | C,3 [C,A,] [C,B,][C,B,] | [F,A,]4[K:treble] GF | E-[F,E-] EE FE | %10
[M:2/4] B,,B,, B,,2 |[M:1/4] ED |[M:3/4] [F,,F,]F,, z E z C | %13
[M:7/8] [B,,F,][B,,=E,] B,,3[K:treble] GF |[M:3/4][K:bass] E3 E FE | B,,B,, B,,2 CD | %16
 .[F,A,]2 z2 z2 |[M:2/4] [B,,F,]4 |] %18
V:3
 x6 | x6 | x6 | x6 | x6 | x6 | x6 | x6 | x6 | z A, z c dc |[M:2/4] [B,D][K:bass][G,E] [F,D]2 | %11
[M:1/4][K:treble] x2 |[M:3/4] z[K:bass] F, z[K:treble] G [DF]E |[M:7/8] x7 |[M:3/4] c4 z2 | %15
 [B,D][K:bass][G,E] [F,D]2[K:treble] AB | z A, A,B d[Ec] |[M:2/4] x4 |] %18
V:4
 x6 | x6 | x6 | x6 | x6 | x6 | x6 | x6 | x6 | z2 A,2 z2 |[M:2/4] x[K:bass] x3 | %11
[M:1/4][K:treble] x2 |[M:3/4] z2[K:bass] F,2[K:treble] z2 |[M:7/8] x7 |[M:3/4] z2 A,2 z2 | %15
 x[K:bass] x3[K:treble] x2 | x6 |[M:2/4] x4 |] %18
V:5
 x6 | x6 | x6 | x6 | x6 | x6 | x6 | x6 | x4[K:treble] x2 | .[F,A,]2 F,2 [F,A,]2 |[M:2/4] x4 | %11
[M:1/4] x2 |[M:3/4] z2 F,,2 [F,,F,]2 |[M:7/8] x5[K:treble] x2 | %14
[M:3/4][K:bass] [F,A,]2 F,2 [F,A,]2 | x6 | E-[F,E-] [F,E][F,B,D] [F,,A,F][F,,F,] |[M:2/4] x4 |] %18

